src/images/svg/symbols/markets-stocks-and-indices/american-stocks/stocks-salesforce-com-inc.svg

<svg width="32" height="32" viewBox="0 0 32 32" fill="none" xmlns="http://www.w3.org/2000/svg">
<path d="M0 16C0 7.16344 7.16344 0 16 0C24.8366 0 32 7.16344 32 16C32 24.8366 24.8366 32 16 32C7.16344 32 0 24.8366 0 16Z" fill="#169BD7"/>
<path d="M18.2809 13.2362C18.3157 13.2441 18.3483 13.2514 18.3838 13.2619C18.3925 13.2619 18.4274 13.2798 18.41 13.3335L18.2705 13.7273C18.2617 13.7542 18.253 13.7721 18.192 13.7542C18.1746 13.7452 18.1571 13.7363 18.0961 13.7273C18.0612 13.7184 18.0002 13.7094 17.9479 13.7094C17.8694 13.7094 17.8084 13.7184 17.7473 13.7363C17.6863 13.7542 17.634 13.79 17.5904 13.8347C17.584 13.8426 17.5772 13.8507 17.5701 13.8591C17.5296 13.9075 17.4819 13.9643 17.4596 14.0406C17.3899 14.2464 17.3637 14.4523 17.3637 14.4702H17.9566C18.0089 14.4702 18.0263 14.4971 18.0176 14.5329L17.9479 14.9267C17.9392 14.9804 17.8868 14.9804 17.8868 14.9804H17.2765L16.858 17.397C16.8144 17.6477 16.7534 17.8625 16.6924 18.0325C16.6226 18.2026 16.5529 18.3279 16.4482 18.4532C16.3523 18.5606 16.239 18.6501 16.1082 18.6949C15.9774 18.7396 15.8205 18.7665 15.6548 18.7665C15.5764 18.7665 15.4892 18.7665 15.3845 18.7396C15.3322 18.7262 15.2946 18.7128 15.257 18.6994C15.2445 18.6949 15.232 18.6904 15.2189 18.6859C15.2015 18.677 15.184 18.6501 15.1927 18.6143C15.2037 18.5917 15.2495 18.4622 15.2861 18.3584C15.3075 18.2978 15.3258 18.246 15.3322 18.2295C15.3584 18.1847 15.402 18.2026 15.402 18.2026C15.4281 18.2205 15.4543 18.2295 15.4979 18.2384C15.5415 18.2474 15.6025 18.2563 15.6461 18.2563C15.7246 18.2563 15.803 18.2384 15.8641 18.2205C15.9338 18.1937 15.9861 18.1489 16.0297 18.0862C16.082 18.0236 16.1169 17.9341 16.1605 17.8177C16.2041 17.7014 16.239 17.5403 16.2739 17.3523L16.6836 14.9804H16.2739C16.2215 14.9804 16.2041 14.9535 16.2128 14.9177L16.2826 14.5239C16.2913 14.4702 16.3436 14.4702 16.3436 14.4702H16.7621L16.7883 14.3449C16.858 13.969 16.9801 13.6736 17.1632 13.4856C17.3463 13.2977 17.6166 13.1992 17.9479 13.1992C18.0438 13.1992 18.131 13.2082 18.2007 13.2171C18.2298 13.2246 18.2559 13.2305 18.2809 13.2362Z" fill="white"/>
<path d="M10.0748 17.4149C10.101 17.4149 10.1271 17.397 10.1271 17.3612V13.3156C10.1271 13.2887 10.1097 13.2619 10.0748 13.2619H9.58654C9.55167 13.2619 9.53423 13.2798 9.53423 13.3156V17.3612C9.53423 17.3881 9.55167 17.4149 9.58654 17.4149H10.0748Z" fill="white"/>
<path d="M4.01847 17.1423C4.00778 17.1339 3.99101 17.1206 4.00587 17.0749L4.13665 16.7079C4.16151 16.6483 4.20214 16.6697 4.22107 16.6796C4.22205 16.6801 4.22298 16.6806 4.22384 16.681C4.25871 16.7079 4.28487 16.7258 4.32846 16.7526C4.71209 17.0033 5.06084 17.0033 5.17418 17.0033C5.46191 17.0033 5.63628 16.8422 5.63628 16.6363V16.6273C5.63628 16.4036 5.366 16.3141 5.05212 16.2156L4.98237 16.1977C4.55515 16.0724 4.09305 15.8934 4.09305 15.3295V15.3205C4.09305 14.7835 4.51156 14.4165 5.11315 14.4165H5.17418C5.52294 14.4165 5.86297 14.5239 6.1071 14.6761C6.13325 14.6851 6.15069 14.7119 6.14197 14.7477C6.13761 14.7656 6.1071 14.8484 6.07658 14.9312C6.04606 15.014 6.01555 15.0968 6.01119 15.1147C5.98503 15.1773 5.924 15.1326 5.924 15.1326C5.71475 15.0162 5.37472 14.9178 5.09572 14.9178C4.84287 14.9178 4.67721 15.052 4.67721 15.24V15.2489C4.67721 15.4694 4.94806 15.5596 5.26459 15.6649C5.26932 15.6665 5.27406 15.668 5.27881 15.6696L5.33112 15.6875C5.75834 15.8307 6.22044 16.0276 6.22044 16.5557V16.5647C6.22044 17.1375 5.81066 17.4955 5.15675 17.4955C4.83415 17.4955 4.52899 17.4418 4.2064 17.2628C4.14537 17.227 4.08433 17.1912 4.0233 17.1465C4.02201 17.1451 4.02033 17.1438 4.01847 17.1423Z" fill="white"/>
<path d="M13.583 17.1423C13.5723 17.1339 13.5555 17.1206 13.5704 17.0749L13.6925 16.7079C13.7099 16.6542 13.7709 16.6721 13.7796 16.681C13.8145 16.7079 13.8407 16.7258 13.8843 16.7526C14.2679 17.0033 14.6166 17.0033 14.73 17.0033C15.0177 17.0033 15.1921 16.8422 15.1921 16.6363V16.6273C15.1921 16.4036 14.9218 16.3141 14.6079 16.2156L14.5382 16.1977C14.111 16.0724 13.6489 15.8934 13.6489 15.3295V15.3205C13.6489 14.7835 14.0674 14.4165 14.669 14.4165H14.7387C15.0875 14.4165 15.4275 14.5239 15.6716 14.6761C15.6978 14.6851 15.7152 14.7119 15.7065 14.7477C15.7021 14.7656 15.6716 14.8484 15.6411 14.9312C15.6106 15.014 15.5801 15.0968 15.5757 15.1147C15.5496 15.1773 15.4885 15.1326 15.4885 15.1326C15.2793 15.0162 14.9392 14.9178 14.6602 14.9178C14.4074 14.9178 14.2417 15.052 14.2417 15.24V15.2489C14.2417 15.4694 14.5126 15.5596 14.8291 15.6649L14.8433 15.6696L14.8956 15.6875C15.3229 15.8307 15.785 16.0276 15.785 16.5557V16.5647C15.785 17.1375 15.3752 17.4955 14.7213 17.4955C14.3987 17.4955 14.0935 17.4418 13.7709 17.2628C13.7099 17.227 13.6489 17.1912 13.5878 17.1465C13.5865 17.1451 13.5849 17.1438 13.583 17.1423Z" fill="white"/>
<path fill-rule="evenodd" clip-rule="evenodd" d="M20.4059 14.8641C20.5106 14.9983 20.5977 15.1594 20.6501 15.3474C20.7111 15.5354 20.7372 15.7323 20.7372 15.9471C20.7372 16.1619 20.7111 16.3588 20.6588 16.5468C20.6065 16.7258 20.528 16.8959 20.4146 17.0301C20.3013 17.1644 20.1618 17.2718 19.9961 17.3523C19.8305 17.4329 19.63 17.4687 19.412 17.4687C19.194 17.4687 18.9935 17.4329 18.8278 17.3523C18.6622 17.2807 18.5227 17.1644 18.4093 17.0301C18.296 16.8959 18.2088 16.7347 18.1565 16.5468C18.1042 16.3678 18.078 16.1619 18.078 15.9471C18.078 15.7323 18.1042 15.5354 18.1565 15.3474C18.2088 15.1684 18.2873 14.9983 18.4006 14.8641C18.5139 14.7209 18.6534 14.6135 18.8191 14.5329C18.9848 14.4613 19.1853 14.4165 19.4033 14.4165C19.6212 14.4165 19.8218 14.4523 19.9874 14.5329C20.1531 14.6135 20.2926 14.7298 20.4059 14.8641ZM19.9351 16.7079C20.0485 16.5289 20.1095 16.2693 20.1095 15.9471C20.1095 15.6249 20.0485 15.3653 19.9351 15.1863C19.8218 15.0162 19.6474 14.9267 19.4033 14.9267C19.1591 14.9267 18.9848 15.0073 18.8714 15.1863C18.7581 15.3653 18.697 15.6249 18.697 15.9471C18.697 16.2693 18.7581 16.5289 18.8714 16.7079C18.9848 16.8869 19.1591 16.9764 19.4033 16.9764C19.6474 16.9764 19.8218 16.8869 19.9351 16.7079Z" fill="white"/>
<path d="M25.0618 16.8511C25.0618 16.8511 25.1141 16.8332 25.1315 16.8869L25.271 17.2539C25.2885 17.2986 25.2449 17.3165 25.2449 17.3165C25.0356 17.3971 24.7479 17.4597 24.4689 17.4597C23.9894 17.4597 23.6319 17.3165 23.3878 17.0391C23.1436 16.7616 23.0216 16.3857 23.0216 15.9202C23.0216 15.7054 23.0477 15.5085 23.1088 15.3205C23.1611 15.1415 23.257 14.9715 23.3703 14.8372C23.4837 14.694 23.6319 14.5866 23.8063 14.506C23.9806 14.4255 24.1899 14.3897 24.4166 14.3897C24.5735 14.3897 24.7043 14.3986 24.8264 14.4165C24.9571 14.4434 25.1228 14.4881 25.1925 14.515C25.21 14.515 25.2449 14.5329 25.2274 14.5777C25.2013 14.6689 25.1751 14.7409 25.1489 14.8129C25.1315 14.8608 25.1141 14.9088 25.0966 14.9625C25.0792 15.0162 25.0356 14.9983 25.0356 14.9983C24.8612 14.9446 24.6869 14.9178 24.4602 14.9178C24.1899 14.9178 23.9894 15.0162 23.8586 15.1952C23.7278 15.3743 23.6493 15.6159 23.6493 15.9292C23.6493 16.2783 23.7365 16.5378 23.8847 16.6989C24.0417 16.8601 24.2509 16.9406 24.5125 16.9406C24.6171 16.9406 24.7217 16.9406 24.8089 16.9227C24.8805 16.9154 24.9521 16.8899 25.0189 16.8662C25.0334 16.861 25.0477 16.8559 25.0618 16.8511Z" fill="white"/>
<path fill-rule="evenodd" clip-rule="evenodd" d="M27.6948 14.7925C27.7733 14.882 27.8867 15.061 27.9302 15.24C28.0205 15.5821 28.0002 15.8844 27.9926 15.998C27.9906 16.027 27.9895 16.0437 27.9913 16.0455C27.9913 16.0993 27.939 16.0993 27.939 16.0993H26.0906C26.108 16.3946 26.1691 16.5915 26.3085 16.7347C26.4393 16.869 26.6486 16.9585 26.9363 16.9585C27.3495 16.9585 27.5434 16.8781 27.6739 16.824C27.681 16.821 27.688 16.8181 27.6948 16.8153C27.6948 16.8153 27.7472 16.7974 27.7646 16.8511L27.8867 17.2002C27.9128 17.2539 27.8867 17.2807 27.8692 17.2897C27.7472 17.3523 27.4682 17.4776 26.9363 17.4776C26.6747 17.4866 26.448 17.4418 26.265 17.3702C26.0819 17.2986 25.9249 17.1912 25.8029 17.057C25.6808 16.9227 25.5849 16.7616 25.5326 16.5736C25.4715 16.3857 25.4454 16.1798 25.4454 15.965C25.4454 15.7502 25.4715 15.5443 25.5239 15.3564C25.5762 15.1684 25.6634 15.0073 25.7767 14.8641C25.89 14.7298 26.0296 14.6135 26.2039 14.5329C26.3783 14.4434 26.5876 14.4076 26.8142 14.4076C27.0148 14.4076 27.1979 14.4523 27.3461 14.515C27.4594 14.5687 27.5728 14.6582 27.6948 14.7925ZM26.2388 15.1863C26.1691 15.3026 26.1167 15.4548 26.0906 15.6338H27.4071C27.3984 15.4638 27.3635 15.3026 27.2851 15.1863C27.1717 15.0073 27.0148 14.9088 26.7706 14.9088C26.5265 14.9088 26.3521 15.0073 26.2388 15.1863Z" fill="white"/>
<path fill-rule="evenodd" clip-rule="evenodd" d="M12.899 14.7925C12.9775 14.882 13.0909 15.061 13.1344 15.24C13.2247 15.5821 13.2044 15.8844 13.1968 15.998C13.1948 16.027 13.1937 16.0437 13.1955 16.0455C13.1955 16.0993 13.1432 16.0993 13.1432 16.0993H11.2948C11.3122 16.3946 11.3733 16.5915 11.5128 16.7347C11.6435 16.869 11.8528 16.9585 12.1405 16.9585C12.5537 16.9585 12.7476 16.8781 12.8781 16.824C12.8852 16.821 12.8922 16.8181 12.899 16.8153C12.899 16.8153 12.9514 16.7974 12.9688 16.8511L13.0909 17.2002C13.117 17.2539 13.0909 17.2807 13.0734 17.2897C12.9514 17.3523 12.6724 17.4776 12.1405 17.4776C11.8789 17.4866 11.6523 17.4418 11.4692 17.3702C11.2861 17.2986 11.1291 17.1912 11.0071 17.057C10.885 16.9227 10.7891 16.7616 10.7368 16.5736C10.6757 16.3857 10.6496 16.1798 10.6496 15.965C10.6496 15.7502 10.6757 15.5443 10.7281 15.3564C10.7804 15.1684 10.8676 15.0073 10.9809 14.8641C11.0942 14.7298 11.2337 14.6135 11.4081 14.5329C11.5825 14.4434 11.7918 14.4076 12.0184 14.4076C12.219 14.4076 12.4021 14.4523 12.5503 14.515C12.6636 14.5687 12.777 14.6582 12.899 14.7925ZM11.443 15.1863C11.3733 15.3026 11.3209 15.4548 11.2948 15.6338H12.6113C12.5939 15.4638 12.5677 15.3026 12.4893 15.1863C12.3759 15.0073 12.219 14.9088 11.9748 14.9088C11.7307 14.9088 11.5563 15.0073 11.443 15.1863Z" fill="white"/>
<path fill-rule="evenodd" clip-rule="evenodd" d="M7.74624 15.5354C7.85958 15.5354 7.95548 15.5354 8.03395 15.5443C8.03395 15.5443 8.18217 15.5622 8.33039 15.5712V15.4906C8.33039 15.24 8.2868 15.1236 8.18217 15.0431C8.08626 14.9625 7.92932 14.9178 7.72879 14.9178C7.72879 14.9178 7.28413 14.9178 6.92666 15.1147C6.91794 15.1236 6.90051 15.1326 6.90051 15.1326C6.90051 15.1326 6.85691 15.1505 6.83947 15.1057L6.70869 14.7477C6.69126 14.703 6.72613 14.6761 6.72613 14.6761C6.89179 14.5418 7.29285 14.4613 7.29285 14.4613C7.43235 14.4344 7.65032 14.4165 7.78982 14.4165C8.15601 14.4165 8.44373 14.506 8.63555 14.6761C8.83608 14.8551 8.93199 15.1415 8.93199 15.5175V17.2539C8.93199 17.2539 8.93199 17.3076 8.88839 17.3165C8.8448 17.3344 8.8012 17.3434 8.75761 17.3523C8.71519 17.3586 8.59698 17.3821 8.46735 17.4079C8.41045 17.4192 8.35136 17.4309 8.29551 17.4418C8.11242 17.4687 7.92933 17.4866 7.73751 17.4866C7.55442 17.4866 7.39748 17.4687 7.24926 17.4329C7.10104 17.3971 6.97898 17.3434 6.87435 17.2628C6.76972 17.1912 6.68254 17.0838 6.63022 16.9675C6.56919 16.8511 6.54304 16.7079 6.54304 16.5378C6.54304 16.3678 6.57791 16.2246 6.63894 16.0993C6.70869 15.9739 6.79588 15.8665 6.90923 15.786C7.02257 15.6965 7.14463 15.6338 7.29285 15.598C7.43235 15.5533 7.5893 15.5354 7.74624 15.5354ZM7.19695 16.7616C7.2231 16.8063 7.23182 16.8153 7.30157 16.878C7.30157 16.878 7.46723 17.0122 7.84214 16.9854C8.1037 16.9675 8.33911 16.9138 8.33911 16.9138V16.0545C8.33911 16.0545 8.1037 16.0097 7.84214 16.0097C7.46723 16.0008 7.31029 16.144 7.31029 16.144C7.19695 16.2246 7.14463 16.3409 7.14463 16.511C7.14463 16.6184 7.16207 16.6989 7.19695 16.7616Z" fill="white"/>
<path d="M22.9137 14.5018C22.9263 14.5121 22.9492 14.5307 22.9344 14.5687C22.9169 14.6224 22.8298 14.882 22.7862 14.9536C22.7687 14.9894 22.7513 15.0073 22.7164 15.0073C22.7164 15.0073 22.6118 14.9804 22.5159 14.9804C22.4548 14.9804 22.3589 14.9894 22.2717 15.0162C22.1933 15.0431 22.1148 15.0968 22.0451 15.1594C21.9753 15.2221 21.923 15.3206 21.8794 15.4369C21.8358 15.5622 21.8184 15.7502 21.8184 15.9381V17.3523C21.8184 17.3792 21.8009 17.406 21.7661 17.406H21.2778C21.2516 17.406 21.2255 17.3881 21.2255 17.3523V14.5239C21.2255 14.4971 21.2429 14.4702 21.2778 14.4702H21.7486C21.7748 14.4702 21.8009 14.4881 21.8009 14.5239V14.7567C21.8707 14.6672 22.0015 14.5777 22.1148 14.5239C22.2369 14.4702 22.3589 14.4255 22.5943 14.4434C22.7164 14.4523 22.8733 14.4881 22.9082 14.4971C22.9095 14.4984 22.9114 14.5 22.9137 14.5018Z" fill="white"/>
</svg>

<svg width="32" height="32" fill="none" xmlns="http://www.w3.org/2000/svg"><path d="M0 16C0 7.163 7.163 0 16 0s16 7.163 16 16-7.163 16-16 16S0 24.837 0 16Z" fill="#169BD7"/><path d="M18.28 13.236c.036.008.068.015.104.026.008 0 .043.018.026.072l-.14.393c-.008.027-.017.045-.078.027a.255.255 0 0 0-.096-.027.678.678 0 0 0-.349.01.364.364 0 0 0-.177.122c-.04.049-.088.105-.11.182-.07.205-.096.411-.096.43h.593c.052 0 .07.026.06.062l-.07.394c-.008.053-.06.053-.06.053h-.61l-.419 2.417c-.044.25-.105.466-.166.636-.07.17-.14.295-.244.42a.827.827 0 0 1-.34.242c-.13.045-.288.072-.453.072-.079 0-.166 0-.27-.027a1.34 1.34 0 0 1-.166-.054c-.018-.009-.035-.036-.026-.072.01-.022.056-.152.093-.256l.046-.128c.026-.045.07-.027.07-.027a.24.24 0 0 0 .096.035.833.833 0 0 0 .148.018.796.796 0 0 0 .218-.035.35.35 0 0 0 .166-.135.942.942 0 0 0 .13-.268 2.98 2.98 0 0 0 .114-.466l.41-2.372h-.41c-.053 0-.07-.027-.061-.062l.07-.394c.008-.054.06-.054.06-.054h.42l.025-.125c.07-.376.192-.671.375-.86.183-.187.454-.286.785-.286.096 0 .183.01.253.018l.08.02ZM10.075 17.415a.05.05 0 0 0 .052-.054v-4.045c0-.027-.017-.054-.052-.054h-.488c-.035 0-.053.018-.053.054v4.045c0 .027.018.054.053.054h.488ZM4.018 17.142c-.01-.008-.027-.021-.012-.067l.13-.367c.026-.06.066-.038.085-.028l.003.001c.035.027.06.045.104.072.384.25.733.25.846.25.288 0 .462-.16.462-.367v-.009c0-.223-.27-.313-.584-.411l-.07-.018c-.427-.126-.889-.305-.889-.869v-.009c0-.537.419-.904 1.02-.904h.061c.349 0 .689.108.933.26.026.01.044.036.035.072-.004.018-.035.1-.065.183-.03.083-.061.166-.066.184-.026.062-.087.018-.087.018a1.897 1.897 0 0 0-.828-.215c-.253 0-.419.134-.419.322v.009c0 .22.271.31.588.416l.014.005.052.018c.427.143.89.34.89.868v.009c0 .572-.41.93-1.064.93-.323 0-.628-.053-.95-.232-.062-.036-.123-.072-.184-.117l-.005-.004Z" fill="#fff"/><path d="M13.583 17.142c-.01-.008-.027-.021-.013-.067l.123-.367c.017-.054.078-.036.087-.027.035.027.06.045.104.072.384.25.733.25.846.25.288 0 .462-.16.462-.367v-.009c0-.223-.27-.313-.584-.411l-.07-.018c-.427-.126-.89-.305-.89-.869v-.009c0-.537.42-.904 1.021-.904h.07c.348 0 .688.108.933.26.026.01.043.036.034.072-.004.018-.034.1-.065.183-.03.083-.06.166-.065.184-.026.062-.088.018-.088.018a1.897 1.897 0 0 0-.828-.215c-.253 0-.418.134-.418.322v.009c0 .22.27.31.587.416l.014.005.053.018c.427.143.889.34.889.868v.009c0 .572-.41.93-1.064.93a1.866 1.866 0 0 1-1.138-.353Z" fill="#fff"/><path fill-rule="evenodd" clip-rule="evenodd" d="M20.406 14.864c.105.134.192.295.244.483.061.188.087.385.087.6 0 .215-.026.412-.078.6-.052.179-.131.349-.244.483a1.26 1.26 0 0 1-.419.322c-.165.08-.366.117-.584.117a1.34 1.34 0 0 1-.584-.117 1.156 1.156 0 0 1-.419-.322 1.27 1.27 0 0 1-.252-.483 2.166 2.166 0 0 1-.079-.6c0-.215.026-.412.079-.6.052-.179.13-.349.244-.483.113-.143.252-.25.418-.331.166-.072.366-.117.584-.117.218 0 .419.036.584.117.166.08.306.197.419.331Zm-.47 1.844c.113-.18.174-.439.174-.76 0-.323-.061-.583-.175-.762-.113-.17-.288-.26-.532-.26-.244 0-.418.081-.532.26-.113.18-.174.439-.174.761s.061.582.174.76c.114.18.288.27.532.27.244 0 .419-.09.532-.27Z" fill="#fff"/><path d="M25.062 16.851s.052-.018.07.036l.139.367c.017.045-.026.063-.026.063a2.27 2.27 0 0 1-.776.143c-.48 0-.837-.143-1.081-.42-.244-.278-.366-.654-.366-1.12 0-.215.026-.412.087-.6.052-.178.148-.348.261-.483.114-.143.262-.25.436-.331.175-.08.384-.116.61-.116.157 0 .288.009.41.026.131.027.297.072.366.099.018 0 .053.018.035.063-.026.09-.052.163-.078.235a4.598 4.598 0 0 0-.052.15c-.018.053-.061.035-.061.035a1.867 1.867 0 0 0-.576-.08c-.27 0-.47.098-.601.277-.131.18-.21.42-.21.734 0 .35.087.609.236.77.157.161.366.242.627.242.105 0 .21 0 .297-.018.072-.008.143-.033.21-.057a2.82 2.82 0 0 1 .043-.015Z" fill="#fff"/><path fill-rule="evenodd" clip-rule="evenodd" d="M27.695 14.793c.078.089.192.268.235.447.09.342.07.644.063.758a.202.202 0 0 0-.002.048c0 .053-.052.053-.052.053h-1.848c.017.296.078.492.217.636.131.134.34.224.628.224.413 0 .607-.08.738-.135l.02-.009s.053-.018.07.036l.123.35c.026.053 0 .08-.018.089-.122.062-.4.188-.933.188a1.683 1.683 0 0 1-.671-.108 1.222 1.222 0 0 1-.462-.313 1.19 1.19 0 0 1-.27-.483 1.97 1.97 0 0 1-.088-.609c0-.215.026-.42.079-.609.052-.188.14-.349.253-.492.113-.134.253-.25.427-.331.174-.09.384-.125.61-.125.2 0 .384.044.532.107.113.054.227.143.349.277Zm-1.456.393c-.07.117-.122.269-.148.448h1.316c-.009-.17-.044-.331-.122-.448a.56.56 0 0 0-.514-.277c-.245 0-.419.098-.532.277ZM12.899 14.793c.079.089.192.268.235.447.09.342.07.644.063.758a.202.202 0 0 0-.002.048c0 .053-.052.053-.052.053h-1.848c.017.296.078.492.218.636.13.134.34.224.627.224.414 0 .608-.08.738-.135l.021-.009s.052-.018.07.036l.122.35c.026.053 0 .08-.018.089-.122.062-.4.188-.933.188a1.684 1.684 0 0 1-.67-.108 1.222 1.222 0 0 1-.463-.313 1.19 1.19 0 0 1-.27-.483 1.97 1.97 0 0 1-.087-.609c0-.215.026-.42.078-.609.052-.188.14-.349.253-.492.113-.134.253-.25.427-.331.175-.09.384-.125.61-.125.201 0 .384.044.532.107.114.054.227.143.349.277Zm-1.456.393c-.07.117-.122.269-.148.448h1.316c-.017-.17-.043-.331-.122-.448a.56.56 0 0 0-.514-.277c-.244 0-.419.098-.532.277ZM7.746 15.535c.114 0 .21 0 .288.01 0 0 .148.017.296.026v-.08c0-.251-.043-.367-.148-.448-.096-.08-.253-.125-.453-.125 0 0-.445 0-.802.197-.01.009-.026.018-.026.018s-.044.018-.062-.027l-.13-.358c-.018-.045.017-.072.017-.072.166-.134.567-.215.567-.215.14-.027.357-.045.497-.045.366 0 .654.09.846.26.2.18.296.466.296.841v1.737s0 .054-.044.063a.707.707 0 0 1-.13.035 54.044 54.044 0 0 1-.462.09 3.802 3.802 0 0 1-.558.045c-.184 0-.34-.018-.489-.054a.97.97 0 0 1-.375-.17.724.724 0 0 1-.244-.296.918.918 0 0 1-.087-.43c0-.17.035-.312.096-.438a.927.927 0 0 1 .27-.313.969.969 0 0 1 .384-.188c.14-.045.296-.063.453-.063Zm-.55 1.227a.388.388 0 0 0 .106.116s.165.134.54.107c.262-.017.497-.071.497-.071v-.86s-.235-.044-.497-.044c-.375-.01-.532.134-.532.134-.113.08-.165.197-.165.367 0 .107.017.188.052.25Z" fill="#fff"/><path d="M22.914 14.502c.012.01.035.029.02.067a3.16 3.16 0 0 1-.148.385c-.017.035-.035.053-.07.053 0 0-.104-.027-.2-.027a.89.89 0 0 0-.244.036.694.694 0 0 0-.227.143.702.702 0 0 0-.166.278 1.669 1.669 0 0 0-.06.501v1.414c0 .027-.018.054-.053.054h-.488a.05.05 0 0 1-.052-.054v-2.828c0-.027.017-.054.052-.054h.47a.05.05 0 0 1 .053.054v.233a.942.942 0 0 1 .793-.314c.122.01.28.045.314.054a.064.064 0 0 0 .006.005Z" fill="#fff"/></svg>
